images/logo_whie.svg

<svg width="123" height="50" viewBox="0 0 123 50" fill="none" xmlns="http://www.w3.org/2000/svg">
<circle cx="13.5" cy="36.5" r="13.5" fill="#D2372E"/>
<circle cx="33.5" cy="26.5" r="23.5" fill="#FFC75F"/>
<circle cx="18" cy="9" r="9" fill="#6193CB"/>
<path d="M34.982 36.312C33.9767 36.312 32.9367 36.1473 31.862 35.818C30.9607 36.0433 30.172 36.156 29.496 36.156C28.8373 36.156 28.3867 36.1387 28.144 36.104C28.2653 35.0813 28.7853 32.49 29.704 28.33C30.64 24.1527 31.108 21.7867 31.108 21.232C31.108 20.66 30.9867 20.166 30.744 19.75C30.5187 19.334 30.2933 19.0307 30.068 18.84L29.704 18.554L29.782 18.164C30.2327 18.0427 31.1513 17.9127 32.538 17.774C33.942 17.618 35.164 17.54 36.204 17.54C38.6133 17.54 40.4333 18.0773 41.664 19.152C42.912 20.2093 43.536 21.934 43.536 24.326C43.536 26.2847 43.2067 28.1653 42.548 29.968C41.9067 31.7533 40.9187 33.2613 39.584 34.492C38.2493 35.7053 36.7153 36.312 34.982 36.312ZM36.828 19.178C36.3773 19.178 35.866 19.23 35.294 19.334C35.1207 21.1713 34.6267 23.858 33.812 27.394C33.0147 30.9127 32.5467 33.1573 32.408 34.128C32.824 34.336 33.396 34.44 34.124 34.44C34.852 34.44 35.5367 34.154 36.178 33.582C36.8367 32.9927 37.3653 32.2647 37.764 31.398C38.1627 30.5313 38.5093 29.5607 38.804 28.486C39.3067 26.562 39.558 24.8113 39.558 23.234C39.558 21.6567 39.35 20.5907 38.934 20.036C38.518 19.464 37.816 19.178 36.828 19.178ZM45.1123 31.502C45.1123 29.3353 45.7623 27.628 47.0623 26.38C48.3796 25.1147 49.8703 24.482 51.5343 24.482C52.5569 24.482 53.3976 24.7333 54.0563 25.236C54.7149 25.7387 55.0443 26.4147 55.0443 27.264C55.0443 28.096 54.8276 28.798 54.3943 29.37C53.9783 29.942 53.4669 30.384 52.8603 30.696C51.6296 31.3027 50.5029 31.684 49.4803 31.84L48.8563 31.918C48.9776 33.5473 49.6449 34.362 50.8583 34.362C51.2743 34.362 51.7163 34.258 52.1843 34.05C52.6523 33.842 53.0163 33.634 53.2763 33.426L53.6663 33.114L54.2903 33.946C54.1516 34.1367 53.8743 34.388 53.4583 34.7C53.0423 35.012 52.6523 35.272 52.2883 35.48C51.2829 36.0347 50.1823 36.312 48.9863 36.312C47.7903 36.312 46.8456 35.8873 46.1523 35.038C45.4589 34.1887 45.1123 33.01 45.1123 31.502ZM48.8303 30.644C49.7143 30.488 50.4163 30.1153 50.9363 29.526C51.4563 28.9367 51.7163 28.174 51.7163 27.238C51.7163 26.302 51.4389 25.834 50.8843 25.834C50.2256 25.834 49.7143 26.3973 49.3503 27.524C49.0036 28.6333 48.8303 29.6733 48.8303 30.644ZM64.6689 32.594C64.6689 33.686 64.1836 34.5787 63.2129 35.272C62.2596 35.9653 61.1676 36.312 59.9369 36.312C58.7063 36.312 57.7269 36.052 56.9989 35.532C56.2883 35.012 55.9329 34.5527 55.9329 34.154C55.9329 33.9113 56.2363 33.5213 56.8429 32.984C57.4496 32.4293 57.9609 32.0913 58.3769 31.97C59.2436 32.6113 59.9543 33.6253 60.5089 35.012C61.1503 34.96 61.4709 34.6567 61.4709 34.102C61.4709 33.3047 60.7689 32.178 59.3649 30.722C57.9609 29.2487 57.2589 28.0787 57.2589 27.212C57.2589 26.3453 57.6489 25.678 58.4289 25.21C59.2089 24.7247 60.1449 24.482 61.2369 24.482C62.3463 24.482 63.1783 24.6813 63.7329 25.08C64.2876 25.4613 64.5649 25.99 64.5649 26.666C64.5649 27.3247 64.0363 28.2433 62.9789 29.422C63.1003 29.5433 63.2563 29.708 63.4469 29.916C63.6376 30.1067 63.8889 30.4793 64.2009 31.034C64.5129 31.5887 64.6689 32.1087 64.6689 32.594ZM62.1729 28.512C62.9009 27.888 63.2649 27.2727 63.2649 26.666C63.2649 26.0593 62.8489 25.756 62.0169 25.756C61.6183 25.756 61.2889 25.8427 61.0289 26.016C60.7689 26.172 60.6389 26.354 60.6389 26.562C60.6389 26.9433 61.0203 27.4807 61.7829 28.174L62.1729 28.512ZM72.0391 26.094C72.0391 26.822 71.8051 28.0787 71.3371 29.864C70.8691 31.632 70.6351 32.7933 70.6351 33.348C70.6351 33.8853 70.7131 34.154 70.8691 34.154C70.9731 34.154 71.3718 33.9893 72.0651 33.66L72.3771 33.504L72.8191 34.414C72.6631 34.5527 72.4551 34.726 72.1951 34.934C71.9351 35.142 71.4498 35.428 70.7391 35.792C70.0284 36.1387 69.3698 36.312 68.7631 36.312C68.1564 36.312 67.6798 36.13 67.3331 35.766C66.9864 35.3847 66.8131 34.882 66.8131 34.258C66.8131 33.6167 67.0298 32.49 67.4631 30.878C67.8964 29.2487 68.1131 28.1913 68.1131 27.706C68.1131 26.978 67.8878 26.2933 67.4371 25.652L67.2031 25.34L67.2291 25.002C68.1478 24.742 69.6384 24.612 71.7011 24.612C71.9264 24.872 72.0391 25.366 72.0391 26.094ZM69.0751 21.778C68.7284 21.4313 68.5551 20.972 68.5551 20.4C68.5551 19.828 68.7891 19.3253 69.2571 18.892C69.7424 18.4587 70.2971 18.242 70.9211 18.242C71.5451 18.242 72.0304 18.4153 72.3771 18.762C72.7238 19.1087 72.8971 19.568 72.8971 20.14C72.8971 20.6947 72.6458 21.1887 72.1431 21.622C71.6578 22.0553 71.1118 22.272 70.5051 22.272C69.8984 22.272 69.4218 22.1073 69.0751 21.778ZM77.7971 38.808C77.2251 39.1547 76.9391 39.4927 76.9391 39.822C76.9391 40.1513 77.1211 40.316 77.4851 40.316C77.8664 40.316 78.2911 40.134 78.7591 39.77C79.2271 39.4233 79.6171 38.8513 79.9291 38.054C79.0971 38.21 78.3864 38.4613 77.7971 38.808ZM85.5191 24.664C85.5884 24.7333 85.6231 24.8893 85.6231 25.132C85.6231 25.3573 85.6058 25.6087 85.5711 25.886C85.5364 26.146 85.4758 26.744 85.3891 27.68C85.3024 28.616 85.2158 29.4307 85.1291 30.124C84.2451 37.924 81.8704 41.824 78.0051 41.824C77.3811 41.824 76.8091 41.6593 76.2891 41.33C75.7864 41.0007 75.5351 40.576 75.5351 40.056C75.5351 39.3627 75.9598 38.73 76.8091 38.158C77.6584 37.586 78.8024 37.144 80.2411 36.832C80.2411 36.8147 80.2931 36.572 80.3971 36.104C80.5011 35.636 80.5704 35.2547 80.6051 34.96C79.5651 35.7227 78.5858 36.104 77.6671 36.104C76.7658 36.104 76.0204 35.7487 75.4311 35.038C74.8591 34.3273 74.5731 33.192 74.5731 31.632C74.5731 29.5867 75.0324 27.888 75.9511 26.536C76.8698 25.1667 78.0831 24.482 79.5911 24.482C80.4404 24.482 81.2811 24.69 82.1131 25.106C82.9971 24.794 83.9504 24.638 84.9731 24.638L85.5191 24.664ZM80.7611 26.016C80.0158 26.016 79.4264 26.6227 78.9931 27.836C78.5598 29.032 78.3431 30.3667 78.3431 31.84C78.3431 33.296 78.6724 34.024 79.3311 34.024C79.7644 34.024 80.2758 33.8593 80.8651 33.53C81.3504 30.618 81.6971 28.2173 81.9051 26.328C81.4198 26.12 81.0384 26.016 80.7611 26.016ZM88.0383 36.078H87.5443C87.5443 35.2633 87.7869 33.7033 88.2723 31.398C88.7749 29.0927 89.0263 27.784 89.0263 27.472C89.0263 26.9 88.7836 26.2933 88.2983 25.652L88.0643 25.34L88.0903 25.002C89.0263 24.742 90.5256 24.612 92.5883 24.612C92.8136 24.9067 92.9349 25.444 92.9523 26.224C94.4603 25.0627 95.7343 24.482 96.7743 24.482C97.3983 24.482 97.8923 24.6987 98.2563 25.132C98.6376 25.5653 98.8283 26.1113 98.8283 26.77C98.8283 27.4113 98.6289 28.5293 98.2303 30.124C97.8316 31.7187 97.6323 32.7933 97.6323 33.348C97.6323 33.8853 97.7016 34.154 97.8403 34.154C97.9443 34.154 98.3083 33.9893 98.9323 33.66L99.2443 33.504L99.7123 34.414C99.5563 34.5527 99.3483 34.726 99.0883 34.934C98.8283 35.142 98.3429 35.428 97.6323 35.792C96.9389 36.1387 96.3149 36.312 95.7603 36.312C94.4949 36.312 93.8623 35.5927 93.8623 34.154C93.8623 33.5473 94.0529 32.4293 94.4343 30.8C94.8329 29.1707 95.0323 28.122 95.0323 27.654C95.0323 27.186 94.8849 26.952 94.5903 26.952C94.0876 26.952 93.4723 27.1687 92.7443 27.602C92.6923 27.8967 92.5189 28.6767 92.2243 29.942C91.6176 32.6633 91.3143 34.5873 91.3143 35.714C90.7076 35.9567 89.6156 36.078 88.0383 36.078ZM101.215 31.502C101.215 29.3353 101.865 27.628 103.165 26.38C104.483 25.1147 105.973 24.482 107.637 24.482C108.66 24.482 109.501 24.7333 110.159 25.236C110.818 25.7387 111.147 26.4147 111.147 27.264C111.147 28.096 110.931 28.798 110.497 29.37C110.081 29.942 109.57 30.384 108.963 30.696C107.733 31.3027 106.606 31.684 105.583 31.84L104.959 31.918C105.081 33.5473 105.748 34.362 106.961 34.362C107.377 34.362 107.819 34.258 108.287 34.05C108.755 33.842 109.119 33.634 109.379 33.426L109.769 33.114L110.393 33.946C110.255 34.1367 109.977 34.388 109.561 34.7C109.145 35.012 108.755 35.272 108.391 35.48C107.386 36.0347 106.285 36.312 105.089 36.312C103.893 36.312 102.949 35.8873 102.255 35.038C101.562 34.1887 101.215 33.01 101.215 31.502ZM104.933 30.644C105.817 30.488 106.519 30.1153 107.039 29.526C107.559 28.9367 107.819 28.174 107.819 27.238C107.819 26.302 107.542 25.834 106.987 25.834C106.329 25.834 105.817 26.3973 105.453 27.524C105.107 28.6333 104.933 29.6733 104.933 30.644ZM112.38 31.502C112.38 29.3353 113.03 27.628 114.33 26.38C115.647 25.1147 117.138 24.482 118.802 24.482C119.825 24.482 120.665 24.7333 121.324 25.236C121.983 25.7387 122.312 26.4147 122.312 27.264C122.312 28.096 122.095 28.798 121.662 29.37C121.246 29.942 120.735 30.384 120.128 30.696C118.897 31.3027 117.771 31.684 116.748 31.84L116.124 31.918C116.245 33.5473 116.913 34.362 118.126 34.362C118.542 34.362 118.984 34.258 119.452 34.05C119.92 33.842 120.284 33.634 120.544 33.426L120.934 33.114L121.558 33.946C121.419 34.1367 121.142 34.388 120.726 34.7C120.31 35.012 119.92 35.272 119.556 35.48C118.551 36.0347 117.45 36.312 116.254 36.312C115.058 36.312 114.113 35.8873 113.42 35.038C112.727 34.1887 112.38 33.01 112.38 31.502ZM116.098 30.644C116.982 30.488 117.684 30.1153 118.204 29.526C118.724 28.9367 118.984 28.174 118.984 27.238C118.984 26.302 118.707 25.834 118.152 25.834C117.493 25.834 116.982 26.3973 116.618 27.524C116.271 28.6333 116.098 29.6733 116.098 30.644Z" fill="white"/>
</svg>

<svg width="123" height="50" fill="none" xmlns="http://www.w3.org/2000/svg"><circle cx="13.5" cy="36.5" r="13.5" fill="#D2372E"/><circle cx="33.5" cy="26.5" r="23.5" fill="#FFC75F"/><circle cx="18" cy="9" r="9" fill="#6193CB"/><path d="M34.982 36.312c-1.005 0-2.045-.165-3.12-.494-.901.225-1.69.338-2.366.338-.659 0-1.11-.017-1.352-.052.121-1.023.641-3.614 1.56-7.774.936-4.177 1.404-6.543 1.404-7.098 0-.572-.121-1.066-.364-1.482-.225-.416-.45-.72-.676-.91l-.364-.286.078-.39c.45-.121 1.37-.251 2.756-.39 1.404-.156 2.626-.234 3.666-.234 2.41 0 4.23.537 5.46 1.612 1.248 1.057 1.872 2.782 1.872 5.174 0 1.959-.33 3.84-.988 5.642-.641 1.785-1.63 3.293-2.964 4.524-1.335 1.213-2.869 1.82-4.602 1.82zm1.846-17.134c-.45 0-.962.052-1.534.156-.173 1.837-.667 4.524-1.482 8.06-.797 3.519-1.265 5.763-1.404 6.734.416.208.988.312 1.716.312s1.413-.286 2.054-.858a6.571 6.571 0 001.586-2.184c.399-.867.745-1.837 1.04-2.912.503-1.924.754-3.675.754-5.252s-.208-2.643-.624-3.198c-.416-.572-1.118-.858-2.106-.858zm8.284 12.324c0-2.167.65-3.874 1.95-5.122 1.318-1.265 2.808-1.898 4.472-1.898 1.023 0 1.864.251 2.522.754.659.503.988 1.179.988 2.028 0 .832-.216 1.534-.65 2.106a4.325 4.325 0 01-1.534 1.326c-1.23.607-2.357.988-3.38 1.144l-.624.078c.122 1.63.789 2.444 2.002 2.444.416 0 .858-.104 1.326-.312.468-.208.832-.416 1.092-.624l.39-.312.624.832c-.138.19-.416.442-.832.754s-.806.572-1.17.78a6.722 6.722 0 01-3.302.832c-1.196 0-2.14-.425-2.834-1.274-.693-.85-1.04-2.028-1.04-3.536zm3.718-.858c.884-.156 1.586-.529 2.106-1.118.52-.59.78-1.352.78-2.288 0-.936-.277-1.404-.832-1.404-.658 0-1.17.563-1.534 1.69-.346 1.11-.52 2.15-.52 3.12zm15.839 1.95c0 1.092-.485 1.985-1.456 2.678-.953.693-2.045 1.04-3.276 1.04-1.23 0-2.21-.26-2.938-.78-.71-.52-1.066-.98-1.066-1.378 0-.243.303-.633.91-1.17.607-.555 1.118-.893 1.534-1.014.867.641 1.577 1.655 2.132 3.042.641-.052.962-.355.962-.91 0-.797-.702-1.924-2.106-3.38-1.404-1.473-2.106-2.643-2.106-3.51s.39-1.534 1.17-2.002c.78-.485 1.716-.728 2.808-.728 1.11 0 1.941.2 2.496.598.555.381.832.91.832 1.586 0 .659-.529 1.577-1.586 2.756.121.121.277.286.468.494.19.19.442.563.754 1.118.312.555.468 1.075.468 1.56zm-2.496-4.082c.728-.624 1.092-1.24 1.092-1.846 0-.607-.416-.91-1.248-.91-.399 0-.728.087-.988.26-.26.156-.39.338-.39.546 0 .381.381.919 1.144 1.612l.39.338zm9.866-2.418c0 .728-.234 1.985-.702 3.77-.468 1.768-.702 2.93-.702 3.484 0 .537.078.806.234.806.104 0 .503-.165 1.196-.494l.312-.156.442.91a16.27 16.27 0 01-.624.52c-.26.208-.745.494-1.456.858-.71.347-1.37.52-1.976.52-.607 0-1.083-.182-1.43-.546-.347-.381-.52-.884-.52-1.508 0-.641.217-1.768.65-3.38.433-1.63.65-2.687.65-3.172 0-.728-.225-1.413-.676-2.054l-.234-.312.026-.338c.919-.26 2.41-.39 4.472-.39.225.26.338.754.338 1.482zm-2.964-4.316c-.347-.347-.52-.806-.52-1.378 0-.572.234-1.075.702-1.508.485-.433 1.04-.65 1.664-.65.624 0 1.11.173 1.456.52.347.347.52.806.52 1.378 0 .555-.251 1.049-.754 1.482-.485.433-1.031.65-1.638.65s-1.083-.165-1.43-.494zm8.722 17.03c-.572.347-.858.685-.858 1.014 0 .33.182.494.546.494.381 0 .806-.182 1.274-.546.468-.347.858-.919 1.17-1.716-.832.156-1.543.407-2.132.754zm7.722-14.144c.07.07.104.225.104.468 0 .225-.017.477-.052.754-.035.26-.095.858-.182 1.794s-.173 1.75-.26 2.444c-.884 7.8-3.259 11.7-7.124 11.7a3.144 3.144 0 01-1.716-.494c-.503-.33-.754-.754-.754-1.274 0-.693.425-1.326 1.274-1.898.85-.572 1.993-1.014 3.432-1.326 0-.017.052-.26.156-.728.104-.468.173-.85.208-1.144-1.04.763-2.02 1.144-2.938 1.144-.901 0-1.647-.355-2.236-1.066-.572-.71-.858-1.846-.858-3.406 0-2.045.46-3.744 1.378-5.096.919-1.37 2.132-2.054 3.64-2.054.85 0 1.69.208 2.522.624a8.533 8.533 0 012.86-.468l.546.026zm-4.758 1.352c-.745 0-1.335.607-1.768 1.82-.433 1.196-.65 2.53-.65 4.004 0 1.456.33 2.184.988 2.184.433 0 .945-.165 1.534-.494.485-2.912.832-5.313 1.04-7.202-.485-.208-.867-.312-1.144-.312zm7.277 10.062h-.494c0-.815.243-2.375.728-4.68.503-2.305.754-3.614.754-3.926 0-.572-.242-1.179-.728-1.82l-.234-.312.026-.338c.936-.26 2.436-.39 4.498-.39.226.295.347.832.364 1.612 1.508-1.161 2.782-1.742 3.822-1.742.624 0 1.118.217 1.482.65.382.433.572.98.572 1.638 0 .641-.2 1.76-.598 3.354-.398 1.595-.598 2.67-.598 3.224 0 .537.07.806.208.806.104 0 .468-.165 1.092-.494l.312-.156.468.91a16.27 16.27 0 01-.624.52c-.26.208-.745.494-1.456.858-.693.347-1.317.52-1.872.52-1.265 0-1.898-.72-1.898-2.158 0-.607.19-1.725.572-3.354.399-1.63.598-2.678.598-3.146 0-.468-.147-.702-.442-.702-.502 0-1.118.217-1.846.65-.052.295-.225 1.075-.52 2.34-.606 2.721-.91 4.645-.91 5.772-.606.243-1.698.364-3.276.364zm13.177-4.576c0-2.167.65-3.874 1.95-5.122 1.318-1.265 2.808-1.898 4.472-1.898 1.023 0 1.864.251 2.522.754.659.503.988 1.179.988 2.028 0 .832-.216 1.534-.65 2.106a4.321 4.321 0 01-1.534 1.326c-1.23.607-2.357.988-3.38 1.144l-.624.078c.122 1.63.789 2.444 2.002 2.444.416 0 .858-.104 1.326-.312.468-.208.832-.416 1.092-.624l.39-.312.624.832c-.138.19-.416.442-.832.754s-.806.572-1.17.78a6.72 6.72 0 01-3.302.832c-1.196 0-2.14-.425-2.834-1.274-.693-.85-1.04-2.028-1.04-3.536zm3.718-.858c.884-.156 1.586-.529 2.106-1.118.52-.59.78-1.352.78-2.288 0-.936-.277-1.404-.832-1.404-.658 0-1.17.563-1.534 1.69-.346 1.11-.52 2.15-.52 3.12zm7.447.858c0-2.167.65-3.874 1.95-5.122 1.317-1.265 2.808-1.898 4.472-1.898 1.023 0 1.863.251 2.522.754.659.503.988 1.179.988 2.028 0 .832-.217 1.534-.65 2.106a4.321 4.321 0 01-1.534 1.326c-1.231.607-2.357.988-3.38 1.144l-.624.078c.121 1.63.789 2.444 2.002 2.444.416 0 .858-.104 1.326-.312.468-.208.832-.416 1.092-.624l.39-.312.624.832c-.139.19-.416.442-.832.754s-.806.572-1.17.78a6.72 6.72 0 01-3.302.832c-1.196 0-2.141-.425-2.834-1.274-.693-.85-1.04-2.028-1.04-3.536zm3.718-.858c.884-.156 1.586-.529 2.106-1.118.52-.59.78-1.352.78-2.288 0-.936-.277-1.404-.832-1.404-.659 0-1.17.563-1.534 1.69-.347 1.11-.52 2.15-.52 3.12z" fill="#fff"/></svg>
